src/images/Twiter.svg

<svg width="21" height="18" viewBox="0 0 21 18" fill="none" xmlns="http://www.w3.org/2000/svg">
<path d="M20.6602 2.67424C19.8852 3.01098 19.0652 3.23283 18.2261 3.33278C19.1079 2.81644 19.7711 1.99614 20.0912 1.02573C19.2575 1.51322 18.3469 1.85527 17.3984 2.03722C16.9991 1.61865 16.5187 1.28566 15.9866 1.0585C15.4546 0.831346 14.8818 0.714758 14.3033 0.715828C11.9609 0.715828 10.0654 2.58385 10.0654 4.8866C10.0637 5.2069 10.1004 5.52625 10.1747 5.83783C8.49507 5.75909 6.85036 5.33061 5.34581 4.57982C3.84126 3.82903 2.50999 2.77244 1.43717 1.47767C1.0608 2.11216 0.861758 2.8361 0.86084 3.57382C0.86084 5.02003 1.61537 6.29838 2.75469 7.04731C2.07967 7.03129 1.41849 6.85263 0.827268 6.5265V6.57815C0.827268 8.60112 2.2907 10.2841 4.22759 10.6671C3.86336 10.7642 3.48803 10.8134 3.11108 10.8135C2.84361 10.814 2.57674 10.788 2.31437 10.736C2.85283 12.3931 4.41999 13.5983 6.27639 13.6327C4.76793 14.7953 2.91593 15.4236 1.01149 15.419C0.673443 15.4185 0.335713 15.3984 0 15.3587C1.9374 16.5958 4.18947 17.2502 6.48815 17.244C14.2943 17.244 18.5589 10.8867 18.5589 5.37297C18.5589 5.1922 18.5541 5.01142 18.5455 4.83495C19.3733 4.24616 20.0893 3.51447 20.6602 2.67424Z" fill="#274C5B"/>
</svg>

<svg width="21" height="18" fill="none" xmlns="http://www.w3.org/2000/svg"><path d="M20.66 2.674a8.686 8.686 0 0 1-2.434.659 4.197 4.197 0 0 0 1.865-2.307 8.511 8.511 0 0 1-2.693 1.011A4.266 4.266 0 0 0 14.303.716c-2.342 0-4.238 1.868-4.238 4.17-.001.32.035.64.11.952a12.082 12.082 0 0 1-8.738-4.36 4.119 4.119 0 0 0-.576 2.096 4.16 4.16 0 0 0 1.894 3.473 4.197 4.197 0 0 1-1.928-.52v.051c0 2.023 1.464 3.706 3.4 4.09-.364.096-.739.145-1.116.146a4.06 4.06 0 0 1-.797-.078c.539 1.657 2.106 2.862 3.962 2.897A8.59 8.59 0 0 1 0 15.359a11.996 11.996 0 0 0 6.488 1.885c7.806 0 12.07-6.357 12.07-11.871 0-.18-.004-.362-.012-.538a8.543 8.543 0 0 0 2.114-2.16Z" fill="#274C5B"/></svg>
